icons-common/storm.svg

<svg height="1em" width="auto" viewBox="0 0 105 105" fill="currentColor" xmlns="http://www.w3.org/2000/svg">
    <path d="M69.7392 63.9431C66.9398 63.9431 64.1835 63.3013 61.6425 62.0604C55.9145 64.371 49.1097 64.5422 43.1664 62.4027C40.7115 63.4297 38.0844 63.9431 35.3711 63.9431C24.1304 63.9431 15 54.8718 15 43.7038C15 34.3758 21.5463 26.2458 30.5475 24.0636C35.285 17.0034 43.3386 12.6816 51.9522 12.6816C62.59 12.6816 71.9788 19.0572 75.8979 28.7704C83.0041 31.295 88 38.184 88 45.8433C88 55.8132 79.8171 63.9431 69.7392 63.9431ZM61.8147 54.1444C62.5038 54.1444 63.236 54.3583 63.8389 54.7434C65.6047 55.856 67.672 56.455 69.7392 56.455C75.6826 56.455 80.4631 51.7054 80.4631 45.8433C80.4631 40.9225 76.9746 36.558 72.151 35.4883C70.859 35.1888 69.7823 34.2474 69.3947 32.9637C66.9829 25.3472 59.9628 20.2125 51.9522 20.2125C45.449 20.2125 39.3764 23.7213 36.1463 29.3266C35.5864 30.3108 34.5528 30.9954 33.433 31.1666C27.2313 32.0652 22.5369 37.4994 22.5369 43.7466C22.5369 50.764 28.308 56.4978 35.3711 56.4978C37.4814 56.4978 39.5056 55.9843 41.2714 55.043C42.305 54.4867 43.5109 54.4439 44.5876 54.9146C49.4543 57.0969 55.3976 56.9257 60.092 54.5723C60.6088 54.3156 61.2118 54.1872 61.8147 54.1872V54.1444Z"
          />
    <path d="M67.8013 66.8525L58.0249 78.8763C54.7087 82.8557 49.842 88.9318 46.6119 92.8684C45.1476 94.6655 42.1329 93.2107 42.6066 90.9857C42.7358 89.9159 43.0373 87.9048 43.2096 86.7923C43.5111 84.6101 44.2432 79.6465 44.8031 76.0094L34.596 75.496C32.9164 75.5388 31.9258 73.4421 33.0025 72.2012L36.0603 68.4357C36.8355 67.4516 37.9984 66.8953 39.2473 66.8953H42.5636L39.032 71.217L47.904 70.7464C49.3252 70.7036 50.5742 71.7733 50.6603 73.2281C50.9187 72.9286 48.55 82.9413 48.55 83.0697C48.4639 83.4548 48.3777 83.9254 48.2485 84.4389C50.5742 81.6148 53.029 78.5768 54.7948 76.3945L61.2981 68.393C62.0733 67.4516 63.2361 66.8953 64.4851 66.8953H67.8013V66.8525Z"
          />
</svg>

<svg xmlns="http://www.w3.org/2000/svg" width="auto" height="1em" fill="currentColor" viewBox="0 0 105 105">
    <path d="M69.74 63.943c-2.8 0-5.556-.642-8.097-1.883-5.729 2.311-12.533 2.482-18.477.343-2.454 1.027-5.082 1.54-7.795 1.54-11.24 0-20.371-9.071-20.371-20.24 0-9.327 6.546-17.457 15.548-19.64 4.737-7.06 12.79-11.381 21.404-11.381 10.638 0 20.027 6.375 23.946 16.088C83.004 31.295 88 38.184 88 45.843c0 9.97-8.183 18.1-18.26 18.1m-7.925-9.799c.689 0 1.421.214 2.024.6a11.13 11.13 0 0 0 5.9 1.711c5.944 0 10.724-4.75 10.724-10.612 0-4.92-3.488-9.285-8.312-10.355-1.292-.3-2.369-1.24-2.756-2.524-2.412-7.617-9.432-12.751-17.443-12.751-6.503 0-12.576 3.508-15.806 9.114-.56.984-1.593 1.668-2.713 1.84-6.202.898-10.896 6.332-10.896 12.58 0 7.017 5.771 12.75 12.834 12.75 2.11 0 4.135-.513 5.9-1.454a3.76 3.76 0 0 1 3.317-.128c4.866 2.182 10.81 2.01 15.504-.343a3.9 3.9 0 0 1 1.723-.385zm5.986 12.709-9.776 12.023c-3.316 3.98-8.183 10.056-11.413 13.992-1.464 1.797-4.48.343-4.005-1.882.129-1.07.43-3.081.603-4.194a913 913 0 0 1 1.593-10.783l-10.207-.513c-1.68.043-2.67-2.054-1.593-3.295l3.057-3.765a4.03 4.03 0 0 1 3.187-1.54h3.317l-3.532 4.321 8.872-.47c1.421-.043 2.67 1.026 2.756 2.481.259-.3-2.11 9.713-2.11 9.842-.086.385-.172.855-.301 1.369 2.325-2.824 4.78-5.862 6.546-8.044l6.503-8.002a4.12 4.12 0 0 1 3.187-1.498h3.316z"/>
</svg>
